X: 11639
T: Eileen Curran
R: reel
M: 4/4
K: Gdorian
|:BAGF DGGB|AFcF dFcF|BAGF DGGA|BABc d2ga|
abaf gfdg|fdcB AFdc|BAGF DFGA|1 (3Bcd cA BGGA:|2 (3Bcd cA BGBd||
|:~g3 ~g3 ag|~f3e fgaf|dgg^f ~g3 a|bg (3agf dgga|
abaf gfdg|fdcB AFdc|BAGF DFGA|1 (3Bcd cA BGBd:|2 BdcA BGGA||

